icons/numix/32x32/mimetypes/text-x-python.svg

<?xml version="1.0" encoding="UTF-8" standalone="no"?>
<svg
   xmlns:dc="http://purl.org/dc/elements/1.1/"
   xmlns:cc="http://creativecommons.org/ns#"
   xmlns:rdf="http://www.w3.org/1999/02/22-rdf-syntax-ns#"
   xmlns:svg="http://www.w3.org/2000/svg"
   xmlns="http://www.w3.org/2000/svg"
   xmlns:sodipodi="http://sodipodi.sourceforge.net/DTD/sodipodi-0.dtd"
   xmlns:inkscape="http://www.inkscape.org/namespaces/inkscape"
   width="32"
   height="32"
   viewBox="0 0 32 32"
   id="svg2"
   version="1.1"
   inkscape:version="0.48.5 r10040"
   sodipodi:docname="text-x-python.svg">
  <metadata
     id="metadata20">
    <rdf:RDF>
      <cc:Work
         rdf:about="">
        <dc:format>image/svg+xml</dc:format>
        <dc:type
           rdf:resource="http://purl.org/dc/dcmitype/StillImage" />
      </cc:Work>
    </rdf:RDF>
  </metadata>
  <defs
     id="defs18" />
  <sodipodi:namedview
     pagecolor="#ffffff"
     bordercolor="#666666"
     borderopacity="1"
     objecttolerance="10"
     gridtolerance="10"
     guidetolerance="10"
     inkscape:pageopacity="0"
     inkscape:pageshadow="2"
     inkscape:window-width="1280"
     inkscape:window-height="970"
     id="namedview16"
     showgrid="false"
     inkscape:zoom="7.375"
     inkscape:cx="16"
     inkscape:cy="16"
     inkscape:window-x="0"
     inkscape:window-y="0"
     inkscape:window-maximized="1"
     inkscape:current-layer="svg2" />
  <path
     style="fill:#366994;fill-opacity:1"
     d="M 5.3358877,2.973e-4 C 4.6484137,3.123e-4 4,0.6767882 4,1.3940315 L 4,30.606268 C 4,31.282757 4.6874737,32 5.3358877,32 L 26.66322,32 c 0.648414,0 1.335888,-0.717243 1.335888,-1.393732 L 28,9 19,0 z"
     id="path4-1"
     inkscape:connector-curvature="0"
     sodipodi:nodetypes="ssssssccs" />
  <path
     style="fill:#000000;fill-opacity:0.19599998"
     d="m 21,9 7,7 0,-7 z"
     id="path6-4"
     inkscape:connector-curvature="0"
     sodipodi:nodetypes="cccc" />
  <path
     style="fill:#ffffff;fill-opacity:0.39200003"
     d="M 19.000306,2.973e-4 27.9919,9 20.378638,9 C 19.705687,9 19.000306,8.2865104 19.000306,7.6135598 z"
     id="path8-6"
     inkscape:connector-curvature="0"
     sodipodi:nodetypes="ccssc" />
  <g
     style="fill:#ffffff"
     id="g10"
     transform="translate(0,0.99973442)">
    <path
       d="m 16.144531,10 c -0.542969,0.0039 -1.066406,0.04687 -1.523437,0.125 -1.339844,0.234375 -1.625,0.304688 -1.625,1.207031 l 0,2 3.335937,0 0,0.667969 -4.671875,0 c -0.917968,0 -1.519531,0.5625 -1.769531,1.605469 -0.292969,1.195312 -0.304687,1.9375 0,3.1875 0.222656,0.925781 0.851563,1.875 1.769531,1.875 l 0.667969,0 0,-2 c 0,-1.035157 0.929687,-2 2,-2 l 3.335937,0 C 18.546875,16.667969 19,16.210938 19,15.332031 L 19,12 C 19,11.148438 18.648438,10.265625 17.789062,10.125 17.246094,10.035156 16.683594,9.996094 16.144531,10 z m -1.148437,1.332031 c 0.371094,0 0.667968,0.300781 0.667968,0.667969 0,0.367188 -0.296874,0.667969 -0.667968,0.667969 -0.367188,0 -0.667969,-0.300781 -0.667969,-0.667969 0,-0.367188 0.300781,-0.667969 0.667969,-0.667969 z"
       id="path12"
       inkscape:connector-curvature="0" />
    <path
       d="m 15.855469,24 c 0.542969,-0.0039 1.066406,-0.04687 1.523437,-0.125 1.339844,-0.234375 1.625,-0.304688 1.625,-1.207031 l 0,-2 -3.335937,0 0,-0.667969 4.671875,0 c 0.917968,0 1.519531,-0.5625 1.769531,-1.605469 0.292969,-1.195312 0.304687,-1.9375 0,-3.1875 -0.222656,-0.925781 -0.851563,-1.875 -1.769531,-1.875 l -0.667969,0 0,2 c 0,1.035157 -0.929687,2 -2,2 l -3.335937,0 C 13.453125,17.332031 13,17.789062 13,18.667969 L 13,22 c 0,0.851562 0.351562,1.734375 1.210938,1.875 0.542968,0.08984 1.105468,0.128906 1.644531,0.125 z m 1.148437,-1.332031 c -0.371094,0 -0.667968,-0.300781 -0.667968,-0.667969 0,-0.367188 0.296874,-0.667969 0.667968,-0.667969 0.367188,0 0.667969,0.300781 0.667969,0.667969 0,0.367188 -0.300781,0.667969 -0.667969,0.667969 z"
       id="path14"
       inkscape:connector-curvature="0" />
  </g>
</svg>

<svg width="32" xmlns="http://www.w3.org/2000/svg" height="32" viewBox="0 0 32 32" xmlns:xlink="http://www.w3.org/1999/xlink">
<path style="fill:#366994" d="M 5.332031 0.667969 C 4.648438 0.667969 4 1.3125 4 2 L 4 30 C 4 30.648438 4.6875 31.332031 5.332031 31.332031 L 26.667969 31.332031 C 27.3125 31.332031 28 30.648438 28 30 L 28 9.332031 L 19.332031 0.667969 Z "/>
<path style="fill:#000;fill-opacity:.196" d="M 19.332031 8 L 19.375 8.042969 L 19.480469 8 Z M 20.667969 9.332031 L 28 16.667969 L 28 9.332031 Z "/>
<path style="fill:#fff;fill-opacity:.392" d="M 19.332031 0.667969 L 28 9.332031 L 20.667969 9.332031 C 20.019531 9.332031 19.332031 8.648438 19.332031 8 Z "/>
<g style="fill:#fff">
<path d="M 16.144531 10 C 15.601562 10.003906 15.078125 10.046875 14.621094 10.125 C 13.28125 10.359375 12.996094 10.429688 12.996094 11.332031 L 12.996094 13.332031 L 16.332031 13.332031 L 16.332031 14 L 11.660156 14 C 10.742188 14 10.140625 14.5625 9.890625 15.605469 C 9.597656 16.800781 9.585938 17.542969 9.890625 18.792969 C 10.113281 19.71875 10.742188 20.667969 11.660156 20.667969 L 12.328125 20.667969 L 12.328125 18.667969 C 12.328125 17.632812 13.257812 16.667969 14.328125 16.667969 L 17.664062 16.667969 C 18.546875 16.667969 19 16.210938 19 15.332031 L 19 12 C 19 11.148438 18.648438 10.265625 17.789062 10.125 C 17.246094 10.035156 16.683594 9.996094 16.144531 10 Z M 14.996094 11.332031 C 15.367188 11.332031 15.664062 11.632812 15.664062 12 C 15.664062 12.367188 15.367188 12.667969 14.996094 12.667969 C 14.628906 12.667969 14.328125 12.367188 14.328125 12 C 14.328125 11.632812 14.628906 11.332031 14.996094 11.332031 Z "/>
<path d="M 15.855469 24 C 16.398438 23.996094 16.921875 23.953125 17.378906 23.875 C 18.71875 23.640625 19.003906 23.570312 19.003906 22.667969 L 19.003906 20.667969 L 15.667969 20.667969 L 15.667969 20 L 20.339844 20 C 21.257812 20 21.859375 19.4375 22.109375 18.394531 C 22.402344 17.199219 22.414062 16.457031 22.109375 15.207031 C 21.886719 14.28125 21.257812 13.332031 20.339844 13.332031 L 19.671875 13.332031 L 19.671875 15.332031 C 19.671875 16.367188 18.742188 17.332031 17.671875 17.332031 L 14.335938 17.332031 C 13.453125 17.332031 13 17.789062 13 18.667969 L 13 22 C 13 22.851562 13.351562 23.734375 14.210938 23.875 C 14.753906 23.964844 15.316406 24.003906 15.855469 24 Z M 17.003906 22.667969 C 16.632812 22.667969 16.335938 22.367188 16.335938 22 C 16.335938 21.632812 16.632812 21.332031 17.003906 21.332031 C 17.371094 21.332031 17.671875 21.632812 17.671875 22 C 17.671875 22.367188 17.371094 22.667969 17.003906 22.667969 Z "/>
</g>
</svg>
